X:1
T:Pas d't
R:Scottish
M:2/4
O:France
S:SiGarb@aol.com tradtunes 2005-6-25
S:Mel Stevens: Massif Central Tune Book No1 (Dragonfly 1987).
Z:Si Garbutt
K:G
d2d2 B2B2|G2G2 E2AB|c2A2 A2BA\
|1GFGA B2G2:|2GFGA G4::
DGBG DFAF|DGBG DFAF|DFAB cBAG\
|1FGAc B2G2:|2FGAFG4:|
